X: 85
T: Missa Ista est speciosa / Credo
N: Derived from Rue1018c-Missa_Ista_est_speciosa-Credo.krn
C: Pierre de la Rue
%%abc-version 2.0
%%abcx-abcm2ps-target-version 5.9.1 (29 Sep 2008)
%%abc-creator hum2abc beta
%%abcx-conversion-date 2019/02/17 08:01:13
%%abc-edited-by Jesse Rodin
%%abc-edited-by Chris Gage 05-16-2013
%%abcx-initial-encoding-date 2013/08/03/
%%humdrum-veritas 843831702
%%humdrum-veritas-data 1002839995
%%linebreak <none>
%%barnumbers 0
L: 1/4
M: 3/1
Q: 1/2=120
V: 1 clef=treble
V: 2 clef=treble-8
V: 3 clef=treble-8
V: 4 clef=bass
V: 5 clef=bass
K: C
[V:1] E8E4 | 
[V:2] z4z4e4 | 
[V:3] B12- | 
[V:4] E,8E,4 | 
[V:5] z12 | 
[V:1] G4E2G3AB2 | 
[V:2] e4e4e2e2- | 
[V:3] B12 | 
[V:4] E,4E,2E,2E,4 | 
[V:5] z12 | 
[V:1] c8A4 | 
[V:2] edcBc2A2e3c | 
[V:3] A12 | 
[V:4] A,,12 | 
[V:5] z12 | 
[V:1] G2G2G2G2E2G2- | 
[V:2] d2e4E2E2E2 | 
[V:3] B12 | 
[V:4] z2E,2E,2E,2G,3F, | 
[V:5] z12 | 
[V:1] GFEDE2DCB,4 | 
[V:2] G3AB2A3^G^G2 | 
[V:3] B12 | 
[V:4] E,D,G,3F,D,2E,4 | 
[V:5] z12 | 
[V:1] A,4z4z4 | 
[V:2] A2A2A2A2c3d | 
[V:3] z12 | 
[V:4] A,,4z2A,,2A,,2A,,2 | 
[V:5] z12 | 
[V:1] z4z2E2E2E2 | 
[V:2] e2A2c3de4- | 
[V:3] z12 | 
[V:4] C,3D,E,2A,,2C,3D, | 
[V:5] z12 | 
[V:1] G3AB2E2G3A | 
[V:2] e4z2e3dc2 | 
[V:3] z12 | 
[V:4] E,12 | 
[V:5] z12 | 
[V:1] B4z2B2B2B2 | 
[V:2] B2e4d3cB2 | 
[V:3] z12 | 
[V:4] z12 | 
[V:5] z12 | 
[V:1] c4B6AG | 
[V:2] A4G8 | 
[V:3] z12 | 
[V:4] z12 | 
[V:5] z12 | 
[V:1] A2G2E2c2c2B2- | 
[V:2] z2c2c2e4d2- | 
[V:3] z12 | 
[V:4] z12 | 
[V:5] z12 | 
[V:1] BAGFE2A4^G2 | 
[V:2] dcBAG2A2B4 | 
[V:3] z12 | 
[V:4] z12 | 
[V:5] z12 | 
[V:1] A12 | 
[V:2] A12 | 
[V:3] c12- | 
[V:4] z2E,2E,2F,4E,2- | 
[V:5] A,,8A,,4 | 
[V:1] z12 | 
[V:2] z12 | 
[V:3] c8B4 | 
[V:4] E,D,C,B,,A,,2A,3G,G,2 | 
[V:5] C,3D,E,2A,,2E,4 | 
[V:1] z12 | 
[V:2] z12 | 
[V:3] A8G4- | 
[V:4] A,2E,2F,2E,4G,2- | 
[V:5] A,,8C,4 | 
[V:1] z12 | 
[V:2] z12 | 
[V:3] G4F8 | 
[V:4] G,F,D,4A,4A,2 | 
[V:5] G,,4D,8 | 
[V:1] z12 | 
[V:2] z12 | 
[V:3] E8E4 | 
[V:4] A,2A,2C3B,A,2G,2 | 
[V:5] A,,4z2A,,2C,3B,, | 
[V:1] z12 | 
[V:2] z12 | 
[V:3] z2E2G3FE2D2 | 
[V:4] F,2E,4E,2G,3F, | 
[V:5] A,,2G,,2E,,2C,4B,,2- | 
[V:1] z12 | 
[V:2] z12 | 
[V:3] G4F2E4D2 | 
[V:4] D,2E,D,C,B,,B,,4A,,2 | 
[V:5] B,,2A,,4G,,2F,,4 | 
[V:1] z2E2E2E2G4 | 
[V:2] B4B2e3dcB | 
[V:3] E12 | 
[V:4] B,,8z4 | 
[V:5] E,,12 | 
[V:1] A4E4z2G2- | 
[V:2] A2c4BAc2B2- | 
[V:3] z12 | 
[V:4] z12 | 
[V:5] z12 | 
[V:1] G2FEG2F4ED | 
[V:2] B2AGB2A2DEFG | 
[V:3] z12 | 
[V:4] z12 | 
[V:5] z12 | 
[V:1] F2E2A,B,CDEFG2- | 
[V:2] ABc3BA2G3A | 
[V:3] z12 | 
[V:4] z4z4z2E,2 | 
[V:5] z12 | 
[V:1] GFE2D4C4 | 
[V:2] B2c3BB2c4 | 
[V:3] z12 | 
[V:4] E,2E,2G,4A,3G, | 
[V:5] z4z4z2A,,2 | 
[V:1] z12 | 
[V:2] z12 | 
[V:3] z12 | 
[V:4] E,4z2C2B,2A,2- | 
[V:5] A,,2A,,2C,4D,3C, | 
[V:1] z12 | 
[V:2] z12 | 
[V:3] z12 | 
[V:4] A,G,F,2E,2D,2G,A,B,C | 
[V:5] A,,4z2F,2E,2D,2- | 
[V:1] z4z4z2C2 | 
[V:2] z12 | 
[V:3] z12 | 
[V:4] A,2G,4F,2G,2E,2 | 
[V:5] D,C,B,,2A,,4G,,2C,2- | 
[V:1] D2D2EFGAF4 | 
[V:2] z4z2c4B2 | 
[V:3] z12 | 
[V:4] D,4C,4z4 | 
[V:5] C,2B,,2C,D,E,F,D,4 | 
[V:1] E2G4F2GFED | 
[V:2] cBAGA4G2cB | 
[V:3] z12 | 
[V:4] z12 | 
[V:5] C,4z4z4 | 
[V:1] ECF4E3DD2 | 
[V:2] AGA2E2G2F4 | 
[V:3] z12 | 
[V:4] z12 | 
[V:5] z12 | 
[V:1] E8z4 | 
[V:2] E4z2A4A2 | 
[V:3] E12- | 
[V:4] C,4C,2C,3D,E,F, | 
[V:5] A,,4A,,2A,,3B,,C,D, | 
[V:1] E4E2E3FGA | 
[V:2] G2c4BAGABc | 
[V:3] E12 | 
[V:4] G,2C,2E,3F,G,4- | 
[V:5] E,2A,,2C,8 | 
[V:1] B3GA2G4FE | 
[V:2] d8d4 | 
[V:3] D12- | 
[V:4] G,4z2G,4G,2 | 
[V:5] G,,4F,,2G,,3A,,B,,C, | 
[V:1] D3EFGA2D2G2 | 
[V:2] d8d4 | 
[V:3] D12 | 
[V:4] F,2B,4A,2G,2F,E, | 
[V:5] D,2G,,2z4G,,3G,, | 
[V:1] G2A2B4B4 | 
[V:2] B2c2d6d2 | 
[V:3] G8G4 | 
[V:4] D,2E,2D,4D,4 | 
[V:5] G,,2C,2B,,2G,,2B,,4 | 
[V:1] c2B3AA4^G2 | 
[V:2] c2e3dd2e4 | 
[V:3] A2G2A4B4 | 
[V:4] E,4z4z4 | 
[V:5] A,,2E,2F,4E,4 | 
[V:1] A8z4 | 
[V:2] c4z4z4 | 
[V:3] A8z4 | 
[V:4] z2E,2E,2F,4E,D, | 
[V:5] A,,3B,,C,2D,4C,B,, | 
[V:1] z12 | 
[V:2] z12 | 
[V:3] c12 | 
[V:4] F,2E,4A,4G,2- | 
[V:5] A,,8C,4 | 
[V:1] z12 | 
[V:2] z12 | 
[V:3] B12 | 
[V:4] G,2F,E,D,4D,2D,2- | 
[V:5] G,,4G,,2G,,3A,,B,,C, | 
[V:1] z12 | 
[V:2] z12 | 
[V:3] A8A4 | 
[V:4] D,E,F,G,A,2G,3^F,F,2 | 
[V:5] D,2D,4C,B,,A,,4 | 
[V:1] D4D2G4G2 | 
[V:2] z4z4G4 | 
[V:3] B12 | 
[V:4] G,12 | 
[V:5] G,,12 | 
[V:1] E3FG2A3GF2 | 
[V:2] G2c4c2A2d2- | 
[V:3] z12 | 
[V:4] z12 | 
[V:5] z12 | 
[V:1] E4z2D2F2F2 | 
[V:2] d^c^c2d4z2A2 | 
[V:3] z12 | 
[V:4] z12 | 
[V:5] z12 | 
[V:1] E2A4G3EFG | 
[V:2] c2c3Bcde2d2 | 
[V:3] z12 | 
[V:4] z12 | 
[V:5] z12 | 
[V:1] E2F3DEFD2C2 | 
[V:2] c2d3BcdB2c2- | 
[V:3] z12 | 
[V:4] z12 | 
[V:5] z12 | 
[V:1] EFGAF2G3ABc | 
[V:2] cABcA2G2Bcde | 
[V:3] z12 | 
[V:4] z12 | 
[V:5] z12 | 
[V:1] A2B3AG4^F2 | 
[V:2] c2d3cB2A4 | 
[V:3] z12 | 
[V:4] z12 | 
[V:5] z12 | 
[V:1] G8z4 | 
[V:2] G4z2c2c2c2 | 
[V:3] e12 | 
[V:4] z2G,2G,2G,2E,2G,2- | 
[V:5] C,8C,4 | 
[V:1] G4G2G3AB2 | 
[V:2] B2d3cBAG4 | 
[V:3] d12 | 
[V:4] G,2F,E,D,4D,3E, | 
[V:5] G,,8B,,4 | 
[V:1] c4A8 | 
[V:2] A4z4z4 | 
[V:3] c12 | 
[V:4] F,G,A,4G,3^F,F,2 | 
[V:5] A,,2C,4B,,2A,,4 | 
[V:1] B4z2G2G2G2 | 
[V:2] d4d2d2d4- | 
[V:3] B12 | 
[V:4] G,8G,4 | 
[V:5] G,,8G,,4 | 
[V:1] A4F6EF | 
[V:2] d2cBA4d4 | 
[V:3] A8A4 | 
[V:4] z2F,2F,2F,2F,E,D,C, | 
[V:5] z2D,2D,2D,3C,B,,A,, | 
[V:1] G6E2E4 | 
[V:2] d3cBAG4E2 | 
[V:3] B8c4 | 
[V:4] D,4G,4C,4 | 
[V:5] G,,8A,,4 | 
[V:1] z4z4z2G2- | 
[V:2] E4z2B2c2e2- | 
[V:3] B8z2B2- | 
[V:4] z2G,4G,2A,2G,2 | 
[V:5] E,,8z4 | 
[V:1] G2G2A2c4B2 | 
[V:2] e2d2c2BAG4 | 
[V:3] B2B2c2e4d2 | 
[V:4] E,6E,2E,4 | 
[V:5] E,,4A,,4E,,2G,,2 | 
[V:1] A2GFE4G4 | 
[V:2] z4G8 | 
[V:3] c2BAG2c4B2 | 
[V:4] E,2D,2E,2C,2D,4 | 
[V:5] A,,2B,,2C,3B,,G,,4 | 
[V:1] GFEDE4D4- | 
[V:2] E2E3FGAB2G2 | 
[V:3] c8B4- | 
[V:4] C,4G,6F,E, | 
[V:5] C,8G,,4 | 
[V:1] D4z2D2D2D2- | 
[V:2] G2G3ABcd4- | 
[V:3] B12 | 
[V:4] D,8z2D,2 | 
[V:5] z2G,,2G,,2G,,3A,,B,,C, | 
[V:1] DEFGA4A3G | 
[V:2] d4d4c4- | 
[V:3] z4z2A2A2A2- | 
[V:4] D,2D,3E,F,G,A,4 | 
[V:5] D,4D,4A,,4- | 
[V:1] E2A2G3FE2D2C2DC | 
[V:2] c8z8 | 
[V:3] ABcde3dc2B2A4 | 
[V:4] A,4E,3F,G,4C,4 | 
[V:5] A,,4z2C,3B,,G,,2A,,4 | 
[V:1] D8z2D2 | 
[V:2] z2B3AG4F2 | 
[V:3] B2d3cB4A2 | 
[V:4] z2G,4G,2D,4 | 
[V:5] G,,2G,,2G,,A,,B,,C,D,4 | 
[V:1] D2D2B,3G,A,2B,A, | 
[V:2] GABcd2G2d4 | 
[V:3] B4G2G4^F2 | 
[V:4] G,2G,3F,E,2D,4 | 
[V:5] G,,8z4 | 
[V:1] B,12 ||  
[V:2] d12 ||  
[V:3] G12 ||  
[V:4] D,12 ||  
[V:5] G,,12 ||  
[V:1]  [K:C] [K:clef=treble][M:2/1]z8 | 
[V:2]  [K:C] [K:clef=treble-8][M:2/1]G4G2E2- | 
[V:3]  [K:C] [K:clef=treble-8][M:2/1]z8 | 
[V:4]  [K:C] [K:clef=bass][M:2/1]z8 | 
[V:5]  [K:C] [K:clef=bass][M:2/1]z8 | 
[V:1] G4G2E2- | 
[V:2] EFGAB2c2- | 
[V:3] z8 | 
[V:4] z8 | 
[V:5] z8 | 
[V:1] EFGAB2c2- | 
[V:2] c2BAG2A2- | 
[V:3] z8 | 
[V:4] z8 | 
[V:5] z8 | 
[V:1] c2BAG2A2- | 
[V:2] A2c2B2A2 | 
[V:3] z8 | 
[V:4] z8 | 
[V:5] z8 | 
[V:1] A2c2B2A2- | 
[V:2] c3BG2A2 | 
[V:3] z8 | 
[V:4] z8 | 
[V:5] z8 | 
[V:1] AGFEF2ED | 
[V:2] c4d4 | 
[V:3] z8 | 
[V:4] z8 | 
[V:5] z4D,4 | 
[V:1] C8 | 
[V:2] e8 | 
[V:3] z8 | 
[V:4] z4A,4 | 
[V:5] A,,6A,,2 | 
[V:1] z8 | 
[V:2] z8 | 
[V:3] z8 | 
[V:4] E,6E,2 | 
[V:5] C,3D,E,F,G,2- | 
[V:1] z8 | 
[V:2] z8 | 
[V:3] z8 | 
[V:4] G,2G,2F,4 | 
[V:5] G,F,E,4D,2 | 
[V:1] z4G4- | 
[V:2] e8- | 
[V:3] B8- | 
[V:4] E,4G,4- | 
[V:5] E,4[E,,4E,4]- | 
[V:1] G4G4 | 
[V:2] e4e4 | 
[V:3] B8 | 
[V:4] G,4G,4 | 
[V:5] [E,,4E,4][E,,4E,4] | 
[V:1] E2A2E2A2- | 
[V:2] e8- | 
[V:3] c8- | 
[V:4] C,4E,4- | 
[V:5] A,,8 | 
[V:1] ABc4BA | 
[V:2] e6dc | 
[V:3] c8 | 
[V:4] E,4C,4 | 
[V:5] A,,8 | 
[V:1] B4G2B2- | 
[V:2] B2B2B2B2 | 
[V:3] d8 | 
[V:4] G,8 | 
[V:5] G,,8 | 
[V:1] BAA4^G2 | 
[V:2] c2e3dB2 | 
[V:3] c4B4 | 
[V:4] E,8- | 
[V:5] A,,4E,4 | 
[V:1] A8- | 
[V:2] c8 | 
[V:3] A8- | 
[V:4] E,4F,4 | 
[V:5] A,,8- | 
[V:1] A8 | 
[V:2] z2e4e2 | 
[V:3] A8 | 
[V:4] E,8 | 
[V:5] A,,8 | 
[V:1] z2A4A2 | 
[V:2] d2cBc4 | 
[V:3] z8 | 
[V:4] z8 | 
[V:5] z8 | 
[V:1] G2FEF4 | 
[V:2] B2e4d2 | 
[V:3] z8 | 
[V:4] z8 | 
[V:5] z8 | 
[V:1] E2G4F2 | 
[V:2] c2e4d2 | 
[V:3] z8 | 
[V:4] z8 | 
[V:5] z8 | 
[V:1] E2D2C4 | 
[V:2] c2B2A4 | 
[V:3] z8 | 
[V:4] z8 | 
[V:5] z4A,,4 | 
[V:1] B,8 | 
[V:2] G8 | 
[V:3] z8 | 
[V:4] z2G,2G,3F, | 
[V:5] E,3F,G,2C,2- | 
[V:1] z8 | 
[V:2] z8 | 
[V:3] z8 | 
[V:4] G,2A,2F,2G,F, | 
[V:5] C,B,,C,2D,2B,,2 | 
[V:1] z8 | 
[V:2] z8 | 
[V:3] z8 | 
[V:4] E,D,G,4^F,2 | 
[V:5] C,B,,A,,G,,A,,4 | 
[V:1] z4B4 | 
[V:2] d8 | 
[V:3] G8- | 
[V:4] G,4z2D,2 | 
[V:5] G,,4G,,4 | 
[V:1] B4B4 | 
[V:2] d4d4 | 
[V:3] G8 | 
[V:4] D,2G,4F,E, | 
[V:5] G,,4G,,4 | 
[V:1] B4B4 | 
[V:2] d4d4 | 
[V:3] G8 | 
[V:4] D,2D,2G,4 | 
[V:5] G,,4G,,4 | 
[V:1] A3GFEF2- | 
[V:2] d4d4- | 
[V:3] F8- | 
[V:4] A,8- | 
[V:5] D,8- | 
[V:1] FEDCD4 | 
[V:2] d2cBA4 | 
[V:3] F8 | 
[V:4] A,8 | 
[V:5] D,8 | 
[V:1] E4z2E2 | 
[V:2] z2A2c4 | 
[V:3] E8 | 
[V:4] z8 | 
[V:5] A,,8 | 
[V:1] G4F4 | 
[V:2] B4A4- | 
[V:3] z8 | 
[V:4] z8 | 
[V:5] z8 | 
[V:1] E6DC | 
[V:2] A2GFEFGA | 
[V:3] z8 | 
[V:4] z8 | 
[V:5] z8 | 
[V:1] B,CDEF2D2- | 
[V:2] BABcd3c | 
[V:3] z8 | 
[V:4] z8 | 
[V:5] z8 | 
[V:1] D2C2B,4 | 
[V:2] BAA4^G2 | 
[V:3] z8 | 
[V:4] z8 | 
[V:5] z8 | 
[V:1] A,4z4 | 
[V:2] A8 | 
[V:3] z8 | 
[V:4] z4E,4 | 
[V:5] A,,4A,,2C,2- | 
[V:1] z8 | 
[V:2] z8 | 
[V:3] z8 | 
[V:4] E,2G,4F,E, | 
[V:5] C,2B,,A,,B,,2B,,2 | 
[V:1] z8 | 
[V:2] z8 | 
[V:3] z8 | 
[V:4] F,4E,3F, | 
[V:5] A,,3B,,C,2D,2 | 
[V:1] z8 | 
[V:2] z8 | 
[V:3] z8 | 
[V:4] G,2A,2B,2C2- | 
[V:5] E,2F,3E,D,C, | 
[V:1] z8 | 
[V:2] z8 | 
[V:3] z8 | 
[V:4] CB,B,2C4 | 
[V:5] D,4C,4 | 
[V:1] A4A2A2 | 
[V:2] c4c2c2 | 
[V:3] F8- | 
[V:4] z4A,4 | 
[V:5] F,,4F,,2F,,2 | 
[V:1] A4c4 | 
[V:2] c6c2 | 
[V:3] F8 | 
[V:4] A,2A,2A,2A,2 | 
[V:5] F,,4F,,4 | 
[V:1] c4A4 | 
[V:2] c4c4 | 
[V:3] F8 | 
[V:4] A,8 | 
[V:5] F,,8 | 
[V:1] B3AG2G2- | 
[V:2] B2G2d4- | 
[V:3] D8- | 
[V:4] G,4B,4 | 
[V:5] G,,2G,,3A,,B,,C, | 
[V:1] G2F2G2FE | 
[V:2] d2c2B4 | 
[V:3] D8 | 
[V:4] A,4G,4 | 
[V:5] D,4G,,4 | 
[V:1] D2A4G2 | 
[V:2] A8 | 
[V:3] F8- | 
[V:4] z4A,4 | 
[V:5] z2D,2F,3E, | 
[V:1] F2E2D4 | 
[V:2] z8 | 
[V:3] F4G4 | 
[V:4] A,2A,2D,4 | 
[V:5] D,2C,2B,,4 | 
[V:1] C2A2A2E2 | 
[V:2] z8 | 
[V:3] A8 | 
[V:4] E,2F,2E,2A,2 | 
[V:5] A,,4C,4 | 
[V:1] FEDCD4 | 
[V:2] z4d4 | 
[V:3] D4F4 | 
[V:4] F,3G,A,4 | 
[V:5] D,8 | 
[V:1] C8 | 
[V:2] e4e2e2- | 
[V:3] E8- | 
[V:4] A,8 | 
[V:5] A,,8 | 
[V:1] z4G4 | 
[V:2] e2dcB4 | 
[V:3] E8 | 
[V:4] z8 | 
[V:5] z8 | 
[V:1] A4A2A2- | 
[V:2] A3Bc2d2 | 
[V:3] z8 | 
[V:4] z8 | 
[V:5] z8 | 
[V:1] A2GFE4 | 
[V:2] A2d3^c^c2 | 
[V:3] z8 | 
[V:4] z4A,4 | 
[V:5] z8 | 
[V:1] D4z4 | 
[V:2] d4z4 | 
[V:3] z8 | 
[V:4] A,2B,4G,2- | 
[V:5] D,4E,4 | 
[V:1] z8 | 
[V:2] z8 | 
[V:3] z8 | 
[V:4] G,2C2B,2A,2- | 
[V:5] C,4D,4 | 
[V:1] z8 | 
[V:2] z4c4 | 
[V:3] z8 | 
[V:4] A,G,F,E,F,4 | 
[V:5] A,,8 | 
[V:1] G4G2B2- | 
[V:2] c2e4dc | 
[V:3] z8 | 
[V:4] E,8 | 
[V:5] z8 | 
[V:1] B2AGABc2 | 
[V:2] d2e2f2e2- | 
[V:3] z8 | 
[V:4] z8 | 
[V:5] z8 | 
[V:1] B2A3^GG2 | 
[V:2] edc2B4 | 
[V:3] z8 | 
[V:4] z8 | 
[V:5] z8 | 
[V:1] A2A2A2A2 | 
[V:2] A8 | 
[V:3] c8 | 
[V:4] z4z2A,2 | 
[V:5] A,,8 | 
[V:1] E6E2 | 
[V:2] z8 | 
[V:3] c8 | 
[V:4] A,2A,2E,4- | 
[V:5] A,,4A,,4 | 
[V:1] E2E2E3F | 
[V:2] z2e2e2e2 | 
[V:3] B8 | 
[V:4] E,2E,2E,2E,2 | 
[V:5] E,,8 | 
[V:1] G2G4FE | 
[V:2] B6B2 | 
[V:3] B8- | 
[V:4] E,4G,4- | 
[V:5] E,,4E,,4 | 
[V:1] D4G4 | 
[V:2] B3cd2B2 | 
[V:3] B8 | 
[V:4] G,2F,E,D,2G,2 | 
[V:5] G,,8 | 
[V:1] C8 | 
[V:2] c2A4GF | 
[V:3] A8 | 
[V:4] E,8 | 
[V:5] A,,6B,,2 | 
[V:1] z8 | 
[V:2] E4F3E | 
[V:3] A6B2 | 
[V:4] z8 | 
[V:5] C,4D,3C, | 
[V:1] z8 | 
[V:2] E2A2G2B2- | 
[V:3] c4d4- | 
[V:4] z8 | 
[V:5] A,,2C,2B,,2G,,2- | 
[V:1] z8 | 
[V:2] BAG4^F2 | 
[V:3] d2B2c4 | 
[V:4] z4C,4 | 
[V:5] G,,2B,,2A,,4 | 
[V:1] z8 | 
[V:2] G8 | 
[V:3] B8 | 
[V:4] D,4D,2E,2- | 
[V:5] G,,8 | 
[V:1] C4D4 | 
[V:2] z8 | 
[V:3] z8 | 
[V:4] E,2E,2F,2D,2 | 
[V:5] z8 | 
[V:1] D2E4E2 | 
[V:2] z8 | 
[V:3] z8 | 
[V:4] F,2E,2A,3G, | 
[V:5] z8 | 
[V:1] F2D2F2E2 | 
[V:2] z8 | 
[V:3] z8 | 
[V:4] F,E,F,2D,2A,2- | 
[V:5] z8 | 
[V:1] A3GFEF2- | 
[V:2] z8 | 
[V:3] z8 | 
[V:4] A,G,F,E,A,4 | 
[V:5] z8 | 
[V:1] F2E3DD2 | 
[V:2] z8 | 
[V:3] z8 | 
[V:4] G,2E,2F,4 | 
[V:5] z4D,4 | 
[V:1] E8 | 
[V:2] z8 | 
[V:3] z8 | 
[V:4] E,4A,4 | 
[V:5] C,2A,,2C,3D, | 
[V:1] z8 | 
[V:2] z8 | 
[V:3] z8 | 
[V:4] G,2E,2G,3A, | 
[V:5] E,F,G,4F,E, | 
[V:1] z8 | 
[V:2] z8 | 
[V:3] z8 | 
[V:4] B,2B,2C3B, | 
[V:5] D,4C,4 | 
[V:1] z8 | 
[V:2] z8 | 
[V:3] z8 | 
[V:4] G,4z2G,2 | 
[V:5] z2C,2E,4- | 
[V:1] z8 | 
[V:2] z8 | 
[V:3] z8 | 
[V:4] C3B,B,A,B,2 | 
[V:5] E,2E,2C,2D,2- | 
[V:1] z8 | 
[V:2] z4d4 | 
[V:3] z8 | 
[V:4] B,2A,3^G,G,2 | 
[V:5] D,C,B,,A,,B,,4 | 
[V:1] z4A4 | 
[V:2] c2A2c3d | 
[V:3] z8 | 
[V:4] A,8 | 
[V:5] A,,8 | 
[V:1] G2E2G3A | 
[V:2] e3d/c/B4 | 
[V:3] z8 | 
[V:4] z8 | 
[V:5] z8 | 
[V:1] B2B2c3B | 
[V:2] z2E2A2A2 | 
[V:3] e8 | 
[V:4] z8 | 
[V:5] z8 | 
[V:1] G4z2G2 | 
[V:2] E2c3BG2 | 
[V:3] e8 | 
[V:4] z8 | 
[V:5] z8 | 
[V:1] c3BBAB2- | 
[V:2] A3GE2G2 | 
[V:3] e6d2 | 
[V:4] z8 | 
[V:5] z8 | 
[V:1] B2A3^GG2 | 
[V:2] A4E4 | 
[V:3] c4B4 | 
[V:4] z8 | 
[V:5] z8 | 
[V:1] A8 | 
[V:2] z8 | 
[V:3] A8- | 
[V:4] z2E,2E,2F,2- | 
[V:5] A,,3B,,C,2D,2- | 
[V:1] z8 | 
[V:2] z8 | 
[V:3] A8 | 
[V:4] F,2E,D,E,2F,2 | 
[V:5] D,2C,B,,C,2D,2 | 
[V:1] z8 | 
[V:2] z8 | 
[V:3] d8- | 
[V:4] G,4A,4 | 
[V:5] G,,2G,4F,2 | 
[V:1] z2G4F2 | 
[V:2] z8 | 
[V:3] d8 | 
[V:4] G,2B,2A,4 | 
[V:5] G,2G,,2D,4 | 
[V:1] G4A4 | 
[V:2] z2G4F2 | 
[V:3] B4c4 | 
[V:4] G,4z4 | 
[V:5] G,,2B,,2A,,4 | 
[V:1] B4G4 | 
[V:2] G2G2d4- | 
[V:3] B8- | 
[V:4] z4z2G,2- | 
[V:5] G,,8- | 
[V:1] z2G4G2 | 
[V:2] d4z2d2 | 
[V:3] B8 | 
[V:4] G,2G,2G,2G,2 | 
[V:5] G,,8 | 
[V:1] G2G2E3F | 
[V:2] e2e2c3d | 
[V:3] c8- | 
[V:4] E,3F,G,2A,2 | 
[V:5] C,8- | 
[V:1] G2A2G2F2 | 
[V:2] e2A2c3d | 
[V:3] c8 | 
[V:4] G,2F,2E,4 | 
[V:5] C,8- | 
[V:1] E4z2E2 | 
[V:2] e2E2G2G2 | 
[V:3] c8 | 
[V:4] z2E,2E,2E,2 | 
[V:5] C,8 | 
[V:1] E2E2E2E2 | 
[V:2] G2G2G3A | 
[V:3] c4c4 | 
[V:4] C,2C,2C,D,E,F, | 
[V:5] z8 | 
[V:1] D3EFGA2- | 
[V:2] B2B2A4 | 
[V:3] B2d4c2 | 
[V:4] G,2G,2F,3E, | 
[V:5] z8 | 
[V:1] A2G3^FF2 | 
[V:2] d8 | 
[V:3] B2AGA4 | 
[V:4] D,8 | 
[V:5] z8 | 
[V:1] [M:3/1]G8z4 | 
[V:2] [M:3/1]B4B4B4 | 
[V:3] [M:3/1]G12- | 
[V:4] [M:3/1]z12 | 
[V:5] [M:3/1]G,,4G,,4G,,4 | 
[V:1] E4E4E4 | 
[V:2] c8z4 | 
[V:3] G12 | 
[V:4] E,4E,4C,4 | 
[V:5] C,8z4 | 
[V:1] G8z4 | 
[V:2] B4B4B4 | 
[V:3] z12 | 
[V:4] D,8z4 | 
[V:5] G,,4G,,4G,,4 | 
[V:1] E4E4E4 | 
[V:2] c4c8 | 
[V:3] z12 | 
[V:4] E,4E,4C,4 | 
[V:5] C,6B,,2A,,4 | 
[V:1] G6F2E4 | 
[V:2] B4B4c4 | 
[V:3] G4G4G4 | 
[V:4] D,8C,4 | 
[V:5] G,,8z4 | 
[V:1] D8z4 | 
[V:2] d4d8 | 
[V:3] A6G2F4 | 
[V:4] F,6E,2D,4 | 
[V:5] D,4D,4D,4 | 
[V:1] A4A4A4 | 
[V:2] e4c4d4 | 
[V:3] E8D4 | 
[V:4] C,4A,,6B,,2 | 
[V:5] A,,6G,,2F,,4 | 
[V:1] G6F2E4 | 
[V:2] G6A2B4 | 
[V:3] E8G4 | 
[V:4] B,,12 | 
[V:5] E,,12 | 
[V:1] D4F6E2 | 
[V:2] A4c6B2 | 
[V:3] F4A6G2 | 
[V:4] z12 | 
[V:5] z12 | 
[V:1] E6D2D4 | 
[V:2] B6A2A4 | 
[V:3] E4F8 | 
[V:4] z12 | 
[V:5] z12 | 
[V:1] E12 | 
[V:2] B12 | 
[V:3] E12 | 
[V:4] z12 | 
[V:5] E,,6F,,2G,,4 | 
[V:1] z12 | 
[V:2] z4z4B4 | 
[V:3] z12 | 
[V:4] E,6F,2G,4 | 
[V:5] A,,4C,2D,2B,,4 | 
[V:1] E6F2G4 | 
[V:2] c4e4d4 | 
[V:3] z12 | 
[V:4] A,4C4B,4 | 
[V:5] A,,8z4 | 
[V:1] A4c4B4 | 
[V:2] e4A4B4 | 
[V:3] z12 | 
[V:4] A,4F,4G,4 | 
[V:5] A,,4A,,4G,,4 | 
[V:1] A6G2E2F2 | 
[V:2] c4c6B2 | 
[V:3] z12 | 
[V:4] A,2F,4E,2C,2D,2 | 
[V:5] F,,4A,,6G,,2 | 
[V:1] G4G2E4D2 | 
[V:2] G4c6B2 | 
[V:3] z12 | 
[V:4] E,8E,4 | 
[V:5] E,,12- | 
[V:1] C4B,8 | 
[V:2] A6^G2^G4 | 
[V:3] z12 | 
[V:4] E,4E,8 | 
[V:5] E,,4E,,8 | 
[V:1] [M:2/1]A,4z2A,2 | 
[V:2] [M:2/1]A2A2c3d | 
[V:3] [M:2/1]c8- | 
[V:4] [M:2/1]E,8 | 
[V:5] [M:2/1]A,,8 | 
[V:1] C3DE4 | 
[V:2] e4z2A2 | 
[V:3] c8 | 
[V:4] z2A,,2C,3D, | 
[V:5] z4A,,4 | 
[V:1] z2A,2C3D | 
[V:2] c3de2E2- | 
[V:3] c8 | 
[V:4] E,2C,3D,E,F, | 
[V:5] A,,4A,,4 | 
[V:1] E2F2G4 | 
[V:2] EFGAB2G2- | 
[V:3] B8- | 
[V:4] G,4E,4 | 
[V:5] E,,4E,,4 | 
[V:1] z8 | 
[V:2] GABcd4 | 
[V:3] B8 | 
[V:4] D,2G,4G,2 | 
[V:5] G,,3A,,B,,2C,2 | 
[V:1] z4z2A,2 | 
[V:2] z2A2c2d2 | 
[V:3] A8- | 
[V:4] F,8 | 
[V:5] D,2F,3E,D,2 | 
[V:1] C3DE2F2 | 
[V:2] e8 | 
[V:3] A8 | 
[V:4] E,4C,4- | 
[V:5] C,2A,,2C,2D,2 | 
[V:1] G2A2B4 | 
[V:2] e4d4 | 
[V:3] G8 | 
[V:4] C,4D,4 | 
[V:5] E,3C,B,,4 | 
[V:1] c4c2A2- | 
[V:2] c8- | 
[V:3] A4A2F2- | 
[V:4] E,8 | 
[V:5] A,,8- | 
[V:1] A2GFE2F2 | 
[V:2] c8 | 
[V:3] F2EDC2A2- | 
[V:4] A,8- | 
[V:5] A,,8- | 
[V:1] E2D3^CC2 | 
[V:2] z8 | 
[V:3] AGF2E4 | 
[V:4] A,8 | 
[V:5] A,,8 | 
[V:1] D4A4- | 
[V:2] z2d4c2 | 
[V:3] D2F2E4 | 
[V:4] z4A,4 | 
[V:5] z4A,,4 | 
[V:1] A4A4 | 
[V:2] d2f4ed | 
[V:3] D4A4- | 
[V:4] A,2F,4F,2 | 
[V:5] D,4D,3C, | 
[V:1] A8- | 
[V:2] c3de2f2- | 
[V:3] A2GFE2A2- | 
[V:4] E,4C4- | 
[V:5] A,,3B,,C,2F,,2 | 
[V:1] A8 | 
[V:2] f2e3dd2 | 
[V:3] A2G2F4 | 
[V:4] C4A,4- | 
[V:5] C,4D,4 | 
[V:1] A8 | 
[V:2] e8 | 
[V:3] E8- | 
[V:4] A,4A,4 | 
[V:5] A,,8 | 
[V:1] G8- | 
[V:2] e6d2 | 
[V:3] E8 | 
[V:4] B,6G,2 | 
[V:5] E,,8 | 
[V:1] G4E4 | 
[V:2] c4B4 | 
[V:3] E8- | 
[V:4] G,8 | 
[V:5] E,,8- | 
[V:1] E8 |]  
[V:2] B8 |]  
[V:3] E8 |]  
[V:4] G,8 |]  
[V:5] E,,8 |]  



